src/assets/icons/filters/categories/ball_stroke.svg

<svg width="48" height="48" viewBox="0 0 48 48" fill="none" xmlns="http://www.w3.org/2000/svg">
<path fill-rule="evenodd" clip-rule="evenodd" d="M3.00731 23.7708C4.67954 24.3128 6.39822 24.5961 8.10761 24.5961C11.9321 24.5961 15.6884 23.2645 18.6984 20.7562L21.9391 24L11.3065 34.6326C11.0468 34.9188 10.9071 35.294 10.9165 35.6805C10.9259 36.0669 11.0835 36.4349 11.3569 36.7082C11.6302 36.9815 11.9982 37.1392 12.3846 37.1485C12.771 37.1579 13.1462 37.0182 13.4324 36.7585L24.065 26.1259L27.3104 29.3697C25.5297 31.5072 24.3169 34.0593 23.7843 36.7898C23.2516 39.5204 23.4164 42.3412 24.2632 44.9911C24.175 44.9911 24.0883 45.0051 24 45.0051C21.2406 45.0121 18.5072 44.4719 15.9579 43.4158C13.4086 42.3596 11.094 40.8084 9.14811 38.8519C7.19163 36.9061 5.64053 34.5915 4.5846 32.0421C3.52867 29.4928 2.98888 26.7594 2.99647 24C2.99647 23.9226 3.00576 23.8467 3.00731 23.7708ZM8.168 10.2289L16.5446 18.6055C14.7066 20.0787 12.5155 21.0459 10.1884 21.4112C7.86138 21.7765 5.47927 21.5272 3.27827 20.6881C3.88781 16.8099 5.58313 13.1836 8.168 10.2289V10.2289ZM10.297 8.10606C13.2607 5.53776 16.8904 3.86029 20.767 3.26743C21.5941 5.46218 21.8358 7.83437 21.4685 10.1508C21.1012 12.4673 20.1375 14.6484 18.6721 16.4796L10.2954 8.10606H10.297ZM38.8519 9.14811C40.8081 11.0942 42.359 13.4088 43.4149 15.9581C44.4708 18.5073 45.0108 21.2407 45.0035 24C45.0035 24.0588 44.9958 24.1177 44.9942 24.1765C42.3517 23.3439 39.5424 23.1883 36.824 23.724C34.1057 24.2597 31.5654 25.4694 29.4363 27.2423L26.1925 24L36.8251 13.3689C37.0887 13.0834 37.2317 12.7069 37.224 12.3183C37.2163 11.9297 37.0586 11.5592 36.7838 11.2843C36.5091 11.0093 36.1387 10.8513 35.7501 10.8434C35.3615 10.8354 34.9849 10.9781 34.6992 11.2415L24.065 21.8741L20.8228 18.6287C22.6032 16.4905 23.8153 13.9376 24.3469 11.2064C24.8785 8.47526 24.7123 5.6541 23.8637 3.00421C23.9102 3.00421 23.9535 2.99802 24 2.99802C26.7593 2.99077 29.4927 3.53072 32.0419 4.58663C34.5912 5.64254 36.9058 7.19346 38.8519 9.14966V9.14811ZM39.8939 37.6999L31.587 29.396C33.4084 27.9397 35.5755 26.9791 37.8778 26.6077C40.1801 26.2363 42.5394 26.4666 44.7264 27.2763C44.1283 31.1369 42.4539 34.7507 39.8955 37.703L39.8939 37.6999ZM29.4611 31.5204L37.7711 39.832C34.8285 42.4063 31.2194 44.0985 27.3584 44.714C26.5357 42.5211 26.2969 40.1521 26.6656 37.8392C27.0342 35.5263 27.9975 33.3489 29.4611 31.5204V31.5204ZM40.9778 40.9778C50.3407 31.6164 50.3407 16.3836 40.9778 7.02221C31.6164 -2.34074 16.3821 -2.34074 7.02221 7.02221C-2.34074 16.3836 -2.34074 31.6164 7.02221 40.9778C9.25 43.209 11.8968 44.9779 14.8104 46.183C17.724 47.388 20.847 48.0054 24 47.9996C30.1485 47.9996 36.2971 45.66 40.9778 40.9778V40.9778Z" fill="black"/>
</svg>

<svg width="48" height="48" viewBox="0 0 48 48" fill="none" xmlns="http://www.w3.org/2000/svg"><path fill-rule="evenodd" clip-rule="evenodd" d="M3.007 23.77c1.673.543 3.391.826 5.1.826 3.825 0 7.581-1.331 10.591-3.84L21.94 24 11.306 34.633a1.505 1.505 0 002.126 2.125l10.633-10.632 3.245 3.244a16.54 16.54 0 00-3.047 15.621c-.088 0-.175.014-.263.014a20.874 20.874 0 01-14.852-6.153A20.865 20.865 0 012.996 24c0-.077.01-.153.011-.23zM8.168 10.23l8.377 8.377a13.514 13.514 0 01-13.267 2.082 20.787 20.787 0 014.89-10.46zm2.129-2.123a20.785 20.785 0 0110.47-4.839 13.517 13.517 0 01-2.095 13.213l-8.377-8.374h.002zm28.555 1.042A20.872 20.872 0 0145.004 24c0 .059-.008.118-.01.177a16.543 16.543 0 00-15.558 3.065L26.192 24l10.633-10.631a1.505 1.505 0 00-2.126-2.127L24.065 21.873l-3.242-3.245a16.537 16.537 0 003.04-15.625c.047 0 .09-.006.137-.006A20.871 20.871 0 0138.852 9.15v-.002zM39.894 37.7l-8.307-8.304a13.522 13.522 0 0113.14-2.12 20.779 20.779 0 01-4.831 10.427l-.002-.003zM29.46 31.52l8.31 8.312a20.784 20.784 0 01-10.413 4.882 13.515 13.515 0 012.103-13.194zm11.517 9.458c9.363-9.362 9.363-24.594 0-33.956-9.362-9.363-24.596-9.363-33.956 0-9.363 9.362-9.363 24.594 0 33.956A23.931 23.931 0 0024 48c6.148 0 12.297-2.34 16.978-7.022z" fill="#000"/></svg>
